other/defit.svg

<?xml version="1.0" encoding="UTF-8" standalone="no"?>
<svg
   viewBox="0 0 48 48"
   version="1.1"
   id="svg1134"
   sodipodi:docname="defit.svg"
   inkscape:version="1.1 (c4e8f9ed74, 2021-05-24)"
   xmlns:inkscape="http://www.inkscape.org/namespaces/inkscape"
   xmlns:sodipodi="http://sodipodi.sourceforge.net/DTD/sodipodi-0.dtd"
   xmlns="http://www.w3.org/2000/svg"
   xmlns:svg="http://www.w3.org/2000/svg">
  <sodipodi:namedview
     id="namedview1136"
     pagecolor="#505050"
     bordercolor="#eeeeee"
     borderopacity="1"
     inkscape:pageshadow="0"
     inkscape:pageopacity="0"
     inkscape:pagecheckerboard="0"
     showgrid="false"
     inkscape:zoom="8.1770833"
     inkscape:cx="32.896815"
     inkscape:cy="23.724841"
     inkscape:window-width="1339"
     inkscape:window-height="1055"
     inkscape:window-x="575"
     inkscape:window-y="19"
     inkscape:window-maximized="1"
     inkscape:current-layer="svg1134" />
  <defs
     id="defs1130">
    <style
       id="style1128">.a{fill:none;stroke:#fff;stroke-linecap:round;stroke-linejoin:round;}</style>
  </defs>
  <path
     class="a"
     d="M 31.719793,34.323733 C 27.653421,38.328178 24,41.7029 24,41.7029 c 0,0 -3.5051,-3.2377 -7.47,-7.1335 L 13.3327,31.3765 C 9.9876,27.9737 6.8867,24.5895 5.818,22.7385 3.1342,18.09 4.5874,10.7933 9.8293,7.7672 15.0712,4.7411 21.7745,6.5368 24,11.7787 26.2259,6.5368 32.9287,4.7408 38.1707,7.7672 c 5.242,3.0264 6.6951,10.323 4.0115,14.9713 -0.306351,0.510905 -0.644762,1.001888 -1.0132,1.47 l -2.128997,2.483235"
     id="path1132"
     style="stroke:#ffffff;stroke-linecap:round"
     sodipodi:nodetypes="cccccscsccc" />
  <path
     id="path2234"
     style="fill:none;stroke:#ffffff;stroke-width:1px;stroke-linecap:round;stroke-linejoin:miter;stroke-opacity:1"
     d="M 22.526327,18.929982 H 12.032772 m 5.246777,-5.246777 V 24.17676" />
  <path
     id="path2335"
     style="fill:none;stroke:#ffffff;stroke-width:1px;stroke-linecap:round;stroke-linejoin:miter;stroke-opacity:1"
     d="M 30.790538,24.108189 H 20.296983 m 5.246777,-5.246777 v 10.493555" />
  <path
     id="path2337"
     style="fill:none;stroke:#ffffff;stroke-width:1px;stroke-linecap:round;stroke-linejoin:miter;stroke-opacity:1"
     d="M 39.054751,29.286393 H 28.561196 m 5.246777,-5.246777 v 10.493555" />
</svg>

<svg xmlns="http://www.w3.org/2000/svg" viewBox="0 0 48 48"><defs><style>.a,.b{fill:none;stroke:#fff;stroke-linecap:round;}.a{stroke-linejoin:round;}</style></defs><path class="a" d="M31.72,34.3237C27.6534,38.3282,24,41.7029,24,41.7029s-3.5051-3.2377-7.47-7.1335l-3.1973-3.1929c-3.3451-3.4028-6.446-6.787-7.5147-8.638C3.1342,18.09,4.5874,10.7933,9.8293,7.7672S21.7745,6.5368,24,11.7787c2.2259-5.2419,8.9287-7.0379,14.1707-4.0115s6.6951,10.323,4.0115,14.9713a14.1017,14.1017,0,0,1-1.0132,1.47L39.04,26.6917"/><path class="b" d="M22.5263,18.93H12.0328M17.28,13.6832V24.1768"/><path class="b" d="M30.7905,24.1082H20.297m5.2468-5.2468V29.355"/><path class="b" d="M39.0548,29.2864H28.5612M33.808,24.04V34.5332"/></svg>
